X: 20024
T: Jimmy Doyle's
R: polka
M: 2/4
K: Gmajor
|:GF/G/ A/B/A/G/|FD DG|BG AB|cd/c/ BA|
GF/G/ AG|FD D>A|B/c/d cA|G2 G2:|
|:B>^A BG|c>B cA|B>^A Bd|cA FD|
B>^A BG|c>B cA|B/c/d cA|G2 G2:|

